dist/img/icon-file-pdf.svg

<svg version="1.1" id="Capa_1" xmlns="http://www.w3.org/2000/svg" x="0" y="0" viewBox="0 0 19.607 24" xml:space="preserve"><path d="M19.592 7.219v-.004c0-.014-.006-.026-.008-.039-.004-.03-.006-.06-.018-.089a.318.318 0 0 0-.055-.085c-.006-.008-.009-.017-.016-.025l-.002-.003-.003-.003-5.451-5.599-.001-.001a.338.338 0 0 0-.238-.102h-.001l-.005-.001H2.947a1.71 1.71 0 0 0-1.708 1.708v19.331a1.71 1.71 0 0 0 1.708 1.708h14.937a1.71 1.71 0 0 0 1.708-1.707V7.219z" fill="#bababa"/><path d="M18.354 5.951v-.004c0-.014-.006-.026-.008-.039-.004-.03-.006-.06-.018-.089a.318.318 0 0 0-.055-.085c-.006-.008-.009-.017-.016-.025l-.002-.003-.003-.003L12.801.104 12.8.103a.338.338 0 0 0-.238-.102h-.001L12.556 0H1.708A1.71 1.71 0 0 0 0 1.708v19.331a1.71 1.71 0 0 0 1.708 1.708h14.937a1.71 1.71 0 0 0 1.708-1.707V5.953l.001-.002zm-5.457-4.768l4.305 4.422h-4.305V1.183zm3.749 20.881H1.708c-.565 0-1.025-.46-1.025-1.025V1.708c0-.565.46-1.025 1.025-1.025h10.506v5.264c0 .189.153.342.342.342h5.115v14.75a1.027 1.027 0 0 1-1.025 1.025z"/><path d="M6.015 15.416h-.991v1.03h-.66v-3.503c.551 0 1.101-.005 1.651-.005 1.712 0 1.717 2.478 0 2.478zm-.991-.606h.991c.846 0 .841-1.241 0-1.241h-.991v1.241zm5.852-.145c.016.886-.525 1.781-1.752 1.781H7.748v-3.503h1.376c1.202 0 1.738.856 1.752 1.722zm-2.472 1.146h.721c.796 0 1.111-.58 1.097-1.15-.016-.546-.336-1.092-1.097-1.092h-.721v2.242zm3.059.635v-3.498h2.518v.636h-1.856v.956h1.756v.61h-1.756v1.296h-.662z"/></svg>

<?xml version="1.0" encoding="utf-8"?>
<!-- Generator: Adobe Illustrator 22.0.1, SVG Export Plug-In . SVG Version: 6.00 Build 0)  -->
<svg version="1.1" id="Capa_1" xmlns="http://www.w3.org/2000/svg" xmlns:xlink="http://www.w3.org/1999/xlink" x="0px" y="0px"
	 viewBox="0 0 19.607 24" style="enable-background:new 0 0 19.607 24;" xml:space="preserve">
<style type="text/css">
	.st0{fill:#BABABA;}
</style>
<path class="st0" d="M19.592,7.219V7.215l0,0l0,0c0-0.014-0.006-0.026-0.008-0.039c-0.004-0.03-0.006-0.06-0.018-0.089
	c-0.013-0.032-0.033-0.059-0.055-0.085c-0.006-0.008-0.009-0.017-0.016-0.025l-0.002-0.003c-0.001-0.001-0.002-0.002-0.003-0.003
	l-5.451-5.599l-0.001-0.001C13.977,1.309,13.893,1.27,13.8,1.269h-0.001c-0.002,0-0.003-0.001-0.005-0.001H2.947
	c-0.942,0-1.708,0.766-1.708,1.708v19.331c0,0.942,0.767,1.708,1.708,1.708h14.937c0.942,0,1.708-0.766,1.708-1.707V7.221
	C19.592,7.22,19.592,7.219,19.592,7.219z"/>
<path d="M18.354,5.951V5.947l0,0l0,0c0-0.014-0.006-0.026-0.008-0.039c-0.004-0.03-0.006-0.06-0.018-0.089
	c-0.013-0.032-0.033-0.059-0.055-0.085c-0.006-0.008-0.009-0.017-0.016-0.025l-0.002-0.003c-0.001-0.001-0.002-0.002-0.003-0.003
	l-5.451-5.599L12.8,0.103c-0.061-0.062-0.145-0.101-0.238-0.102h-0.001C12.559,0.001,12.557,0,12.556,0H1.708
	C0.767,0,0,0.766,0,1.708v19.331c0,0.942,0.767,1.708,1.708,1.708h14.937c0.942,0,1.708-0.766,1.708-1.707V5.953
	C18.354,5.952,18.354,5.952,18.354,5.951z M12.897,1.183l4.305,4.422h-4.305C12.897,5.605,12.897,1.183,12.897,1.183z
	 M16.646,22.064H1.708c-0.565,0-1.025-0.46-1.025-1.025V1.708c0-0.565,0.46-1.025,1.025-1.025h10.506v5.264
	c0,0.189,0.153,0.342,0.342,0.342h5.115v14.75C17.67,21.604,17.211,22.064,16.646,22.064z"/>
<g>
	<path d="M6.015,15.416H5.024v1.03H4.364v-3.503c0.551,0,1.101-0.005,1.651-0.005C7.727,12.938,7.732,15.416,6.015,15.416z
		 M5.024,14.81h0.991c0.846,0,0.841-1.241,0-1.241H5.024V14.81z"/>
	<path d="M10.876,14.665c0.016,0.886-0.525,1.781-1.752,1.781c-0.43,0-0.945,0-1.376,0v-3.503c0.431,0,0.946,0,1.376,0
		C10.326,12.943,10.862,13.799,10.876,14.665z M8.404,15.811h0.721c0.796,0,1.111-0.58,1.097-1.15
		c-0.016-0.546-0.336-1.092-1.097-1.092H8.404V15.811z"/>
	<path d="M11.463,16.446v-3.498h2.518v0.636h-1.856v0.956h1.756v0.61h-1.756v1.296H11.463z"/>
</g>
</svg>
